src/lib/packages/icons/src/assets/line/box-search.svg

<svg width="24" height="24" viewBox="0 0 24 24" fill="none" xmlns="http://www.w3.org/2000/svg">
<path d="M12.693 19.703L11.912 20.053C11.86 20.077 11.804 20.087 11.75 20.106V11.386C12.014 11.333 12.274 11.255 12.524 11.146L19.179 8.19C19.214 8.347 19.25 8.50599 19.25 8.67099V12C19.25 12.414 19.586 12.75 20 12.75C20.414 12.75 20.75 12.414 20.75 12V8.67099C20.75 8.03399 20.58 7.42701 20.288 6.88901C20.287 6.88601 20.287 6.88199 20.286 6.87799C20.282 6.86899 20.274 6.86401 20.27 6.85501C19.882 6.15801 19.283 5.58301 18.525 5.24701L12.528 2.57901C11.557 2.14401 10.445 2.14301 9.47595 2.57801L3.47595 5.24701C2.71795 5.58401 2.11896 6.15899 1.73096 6.85599C1.72696 6.86499 1.71897 6.87 1.71497 6.879C1.71397 6.882 1.71401 6.88602 1.71301 6.89002C1.42101 7.42802 1.25098 8.036 1.25098 8.672V15.33C1.25098 16.809 2.12505 18.154 3.47705 18.755L9.474 21.423C9.959 21.641 10.481 21.75 11.001 21.75C11.521 21.75 12.043 21.641 12.527 21.423L13.307 21.073C13.685 20.904 13.8541 20.46 13.6851 20.082C13.5151 19.703 13.07 19.534 12.693 19.703ZM10.088 3.94699C10.668 3.68599 11.333 3.687 11.915 3.948L17.915 6.61701C18.083 6.69201 18.231 6.79601 18.373 6.90601L15.644 8.11801L8.38696 4.70301L10.088 3.94699ZM6.57605 5.50901L13.832 8.92301L11.921 9.77201C11.336 10.027 10.6651 10.027 10.0861 9.77399L3.62805 6.90601C3.77005 6.79601 3.91706 6.69201 4.08606 6.61701L6.57605 5.50901ZM4.08496 17.383C3.27396 17.023 2.75 16.216 2.75 15.329V8.67099C2.75 8.50499 2.78604 8.347 2.82104 8.19L9.48096 11.148C9.72996 11.256 9.98798 11.335 10.251 11.387V20.107C10.196 20.087 10.1391 20.077 10.0861 20.053L4.08496 17.383ZM22.53 20.466L20.98 18.917C21.358 18.34 21.582 17.654 21.582 16.914C21.582 14.893 19.937 13.248 17.916 13.248C15.894 13.248 14.249 14.893 14.249 16.914C14.249 18.935 15.894 20.58 17.916 20.58C18.656 20.58 19.3419 20.356 19.9189 19.978L21.469 21.527C21.615 21.673 21.807 21.746 21.999 21.746C22.191 21.746 22.3831 21.673 22.5291 21.526C22.8231 21.234 22.823 20.759 22.53 20.466ZM15.75 16.914C15.75 15.72 16.722 14.748 17.917 14.748C19.111 14.748 20.083 15.72 20.083 16.914C20.083 18.108 19.111 19.08 17.917 19.08C16.722 19.08 15.75 18.108 15.75 16.914Z" fill="currentColor"/>
</svg>

<svg xmlns="http://www.w3.org/2000/svg" width="24" height="24" fill="none"><path fill="currentColor" d="m12.693 19.703-.781.35c-.052.024-.108.034-.162.053v-8.72c.264-.053.524-.131.774-.24l6.655-2.956c.035.157.071.316.071.481V12a.75.75 0 0 0 1.5 0V8.671c0-.637-.17-1.244-.462-1.782l-.002-.011c-.004-.009-.012-.014-.016-.023a3.732 3.732 0 0 0-1.745-1.608l-5.997-2.668a3.732 3.732 0 0 0-3.052-.001l-6 2.669a3.74 3.74 0 0 0-1.745 1.609c-.004.009-.012.014-.016.023l-.002.011a3.734 3.734 0 0 0-.462 1.782v6.658c0 1.479.874 2.824 2.226 3.425l5.997 2.668a3.728 3.728 0 0 0 3.053 0l.78-.35a.75.75 0 0 0 .378-.991c-.17-.379-.615-.548-.992-.379ZM10.088 3.947a2.23 2.23 0 0 1 1.827.001l6 2.669c.168.075.316.179.458.289l-2.729 1.212-7.257-3.415 1.701-.756ZM6.576 5.509l7.256 3.414-1.911.849a2.304 2.304 0 0 1-1.835.002L3.628 6.906a2.23 2.23 0 0 1 .458-.289l2.49-1.108ZM4.085 17.383a2.25 2.25 0 0 1-1.335-2.054V8.671c0-.166.036-.324.071-.481l6.66 2.958c.249.108.507.187.77.239v8.72c-.055-.02-.112-.03-.165-.054l-6.001-2.67Zm18.445 3.083-1.55-1.549a3.642 3.642 0 0 0 .602-2.003 3.67 3.67 0 0 0-3.666-3.666 3.67 3.67 0 0 0-3.667 3.666 3.67 3.67 0 0 0 3.667 3.666c.74 0 1.426-.224 2.003-.602l1.55 1.549a.747.747 0 0 0 1.06-.001.748.748 0 0 0 .001-1.06Zm-6.78-3.552a2.17 2.17 0 0 1 2.167-2.166c1.194 0 2.166.972 2.166 2.166a2.169 2.169 0 0 1-2.166 2.166 2.17 2.17 0 0 1-2.167-2.166Z"/></svg>
